X:1
T:La Bourrée à Huit
R:Bourree
B:Massif Central Tune Book no 2 number 17
M:3/8
L:1/8
K:G
"D"d2^c|d2 A/B/|"C"cBA|"G"BGG|"D"d2^c|d2 A/B/|"C"cBA|1"G"G3:|2"G"G2D||
"G"GFG|D2G|"D"F/G/Ad|BGG|"G"GFG|D2G|"C"F/G/A"D"F|1"G"G2:|2"G"G3|]
